X:403
T: DU TAPFRER HELD
N: E0331
O: Europa, Mitteleuropa, Deutschland
R: historisches Lied, Siebenjaehriger Krieg (1757)
M: 2/4
L: 1/16
K: G
 | d4B2d2 | G4z2
G2 | F3EF2G2 | A4z2
A2 | d3df2e2 | d4z2
G2 | F3EF2G2 | A4z2
A2 | G3AB2c2 | d6
e2 | d2dcB2c2 | B4A4 | G4z4

